public/assets/images/favicon.svg

<svg width="325" height="133" viewBox="0 0 325 133" fill="none" xmlns="http://www.w3.org/2000/svg">
<rect width="325" height="133" fill="#FDFDFD"/>
<path d="M129.961 79.1289C128.659 80.2487 127.201 81.1081 125.586 81.707C123.971 82.306 122.298 82.6055 120.566 82.6055C119.238 82.6055 117.956 82.4297 116.719 82.0781C115.495 81.7396 114.342 81.2578 113.262 80.6328C112.194 79.9948 111.217 79.2331 110.332 78.3477C109.447 77.4622 108.685 76.4857 108.047 75.418C107.422 74.3372 106.934 73.1849 106.582 71.9609C106.243 70.724 106.074 69.4414 106.074 68.1133C106.074 66.7852 106.243 65.5026 106.582 64.2656C106.934 63.0286 107.422 61.8763 108.047 60.8086C108.685 59.7279 109.447 58.7448 110.332 57.8594C111.217 56.974 112.194 56.2188 113.262 55.5938C114.342 54.9557 115.495 54.4674 116.719 54.1289C117.956 53.7773 119.238 53.6016 120.566 53.6016C122.298 53.6016 123.971 53.901 125.586 54.5C127.201 55.0859 128.659 55.9453 129.961 57.0781L126.992 61.9609C126.172 61.0755 125.202 60.3984 124.082 59.9297C122.962 59.4479 121.79 59.207 120.566 59.207C119.329 59.207 118.171 59.4414 117.09 59.9102C116.009 60.3789 115.065 61.0169 114.258 61.8242C113.451 62.6185 112.812 63.5625 112.344 64.6562C111.875 65.737 111.641 66.8893 111.641 68.1133C111.641 69.3372 111.875 70.4896 112.344 71.5703C112.812 72.638 113.451 73.5755 114.258 74.3828C115.065 75.1901 116.009 75.8281 117.09 76.2969C118.171 76.7656 119.329 77 120.566 77C121.79 77 122.962 76.7656 124.082 76.2969C125.202 75.8151 126.172 75.1315 126.992 74.2461L129.961 79.1289ZM162.244 68.1133C162.244 69.4414 162.068 70.724 161.716 71.9609C161.378 73.1849 160.896 74.3372 160.271 75.418C159.646 76.4857 158.891 77.4622 158.005 78.3477C157.12 79.2331 156.143 79.9948 155.076 80.6328C154.008 81.2578 152.856 81.7396 151.619 82.0781C150.382 82.4297 149.099 82.6055 147.771 82.6055C146.443 82.6055 145.16 82.4297 143.923 82.0781C142.699 81.7396 141.547 81.2578 140.466 80.6328C139.399 79.9948 138.422 79.2331 137.537 78.3477C136.651 77.4622 135.89 76.4857 135.252 75.418C134.627 74.3372 134.138 73.1849 133.787 71.9609C133.448 70.724 133.279 69.4414 133.279 68.1133C133.279 66.7852 133.448 65.5026 133.787 64.2656C134.138 63.0286 134.627 61.8763 135.252 60.8086C135.89 59.7409 136.651 58.7643 137.537 57.8789C138.422 56.9935 139.399 56.2383 140.466 55.6133C141.547 54.9883 142.699 54.5065 143.923 54.168C145.16 53.8164 146.443 53.6406 147.771 53.6406C149.099 53.6406 150.382 53.8164 151.619 54.168C152.856 54.5065 154.008 54.9883 155.076 55.6133C156.143 56.2383 157.12 56.9935 158.005 57.8789C158.891 58.7643 159.646 59.7409 160.271 60.8086C160.896 61.8763 161.378 63.0286 161.716 64.2656C162.068 65.5026 162.244 66.7852 162.244 68.1133ZM156.677 68.1133C156.677 66.8893 156.443 65.737 155.974 64.6562C155.505 63.5625 154.867 62.6185 154.06 61.8242C153.266 61.0169 152.322 60.3789 151.228 59.9102C150.147 59.4414 148.995 59.207 147.771 59.207C146.534 59.207 145.375 59.4414 144.295 59.9102C143.214 60.3789 142.27 61.0169 141.462 61.8242C140.655 62.6185 140.017 63.5625 139.548 64.6562C139.08 65.737 138.845 66.8893 138.845 68.1133C138.845 69.3372 139.08 70.4896 139.548 71.5703C140.017 72.638 140.655 73.5755 141.462 74.3828C142.27 75.1901 143.214 75.8281 144.295 76.2969C145.375 76.7656 146.534 77 147.771 77C148.995 77 150.147 76.7656 151.228 76.2969C152.322 75.8281 153.266 75.1901 154.06 74.3828C154.867 73.5755 155.505 72.638 155.974 71.5703C156.443 70.4896 156.677 69.3372 156.677 68.1133ZM190.777 67.9961C190.777 69.2852 190.607 70.5286 190.269 71.7266C189.943 72.9115 189.474 74.0247 188.862 75.0664C188.251 76.0951 187.521 77.0391 186.675 77.8984C185.829 78.7448 184.885 79.474 183.843 80.0859C182.801 80.6979 181.682 81.1732 180.484 81.5117C179.299 81.8372 178.062 82 176.773 82H168.335V53.9922H176.773C178.062 53.9922 179.299 54.1615 180.484 54.5C181.682 54.8255 182.801 55.2943 183.843 55.9062C184.885 56.5182 185.829 57.2539 186.675 58.1133C187.521 58.9596 188.251 59.9036 188.862 60.9453C189.474 61.974 189.943 63.0872 190.269 64.2852C190.607 65.4701 190.777 66.707 190.777 67.9961ZM185.171 67.9961C185.171 66.8372 184.95 65.75 184.507 64.7344C184.077 63.7188 183.478 62.8333 182.71 62.0781C181.955 61.3099 181.063 60.7044 180.034 60.2617C179.019 59.819 177.932 59.5977 176.773 59.5977H173.98V76.3945H176.773C177.932 76.3945 179.019 76.1797 180.034 75.75C181.063 75.3073 181.955 74.7083 182.71 73.9531C183.478 73.1849 184.077 72.293 184.507 71.2773C184.95 70.2487 185.171 69.1549 185.171 67.9961ZM209.505 82H203.919V73.2305C202.682 72.918 201.542 72.4167 200.501 71.7266C199.472 71.0365 198.587 70.2161 197.845 69.2656C197.102 68.3021 196.523 67.2409 196.106 66.082C195.703 64.9102 195.501 63.6797 195.501 62.3906V53.9922H201.106V62.3906C201.106 63.1589 201.249 63.888 201.536 64.5781C201.835 65.2552 202.239 65.8477 202.747 66.3555C203.255 66.8633 203.847 67.2669 204.524 67.5664C205.214 67.8529 205.943 67.9961 206.712 67.9961C207.48 67.9961 208.203 67.8529 208.88 67.5664C209.57 67.2669 210.169 66.8633 210.677 66.3555C211.184 65.8477 211.582 65.2552 211.868 64.5781C212.167 63.888 212.317 63.1589 212.317 62.3906V53.9922H217.903V62.3906C217.903 63.6797 217.695 64.9102 217.278 66.082C216.874 67.2409 216.302 68.3021 215.559 69.2656C214.817 70.2161 213.932 71.0365 212.903 71.7266C211.874 72.4167 210.742 72.918 209.505 73.2305V82Z" fill="#0072FF"/>
</svg>

<svg xmlns="http://www.w3.org/2000/svg" width="325" height="133" fill="none"><path fill="#FDFDFD" d="M0 0h325v133H0z"/><path fill="#0072FF" d="M129.961 79.129a14.259 14.259 0 0 1-4.375 2.578 14.32 14.32 0 0 1-5.02.899 14 14 0 0 1-3.847-.528 14.69 14.69 0 0 1-3.457-1.445 15.018 15.018 0 0 1-2.93-2.285 15.055 15.055 0 0 1-2.285-2.93 15.353 15.353 0 0 1-1.465-3.457 14.49 14.49 0 0 1-.508-3.848c0-1.328.169-2.61.508-3.847.352-1.237.84-2.39 1.465-3.457.638-1.081 1.4-2.064 2.285-2.95a14.441 14.441 0 0 1 2.93-2.265 14.214 14.214 0 0 1 3.457-1.465 14 14 0 0 1 3.847-.527c1.732 0 3.405.299 5.02.898a13.76 13.76 0 0 1 4.375 2.578l-2.969 4.883a8.273 8.273 0 0 0-2.91-2.031 8.806 8.806 0 0 0-3.516-.723 8.639 8.639 0 0 0-3.476.703 9.055 9.055 0 0 0-2.832 1.914 8.766 8.766 0 0 0-1.914 2.832 8.59 8.59 0 0 0-.703 3.457 8.59 8.59 0 0 0 .703 3.457 9.057 9.057 0 0 0 4.746 4.727 8.64 8.64 0 0 0 3.476.703 9.018 9.018 0 0 0 3.516-.703 8.498 8.498 0 0 0 2.91-2.05l2.969 4.882Zm32.283-11.016c0 1.328-.176 2.611-.528 3.848a14.683 14.683 0 0 1-1.445 3.457 14.442 14.442 0 0 1-2.266 2.93 15.042 15.042 0 0 1-2.929 2.285 14.263 14.263 0 0 1-3.457 1.445c-1.237.352-2.52.528-3.848.528-1.328 0-2.611-.176-3.848-.528a14.708 14.708 0 0 1-3.457-1.445 15.042 15.042 0 0 1-2.929-2.285 15.016 15.016 0 0 1-2.285-2.93 15.307 15.307 0 0 1-1.465-3.457 14.49 14.49 0 0 1-.508-3.848c0-1.328.169-2.61.508-3.847a14.82 14.82 0 0 1 1.465-3.457 15.013 15.013 0 0 1 2.285-2.93 14.463 14.463 0 0 1 2.929-2.266 14.708 14.708 0 0 1 3.457-1.445 14.007 14.007 0 0 1 3.848-.527c1.328 0 2.611.175 3.848.527 1.237.339 2.389.82 3.457 1.445a14.463 14.463 0 0 1 2.929 2.266 14.238 14.238 0 0 1 3.711 6.387 13.99 13.99 0 0 1 .528 3.847Zm-5.567 0a8.59 8.59 0 0 0-.703-3.457 8.782 8.782 0 0 0-1.914-2.832 8.766 8.766 0 0 0-2.832-1.914 8.593 8.593 0 0 0-3.457-.703 8.636 8.636 0 0 0-3.476.703 9.071 9.071 0 0 0-2.833 1.914 8.782 8.782 0 0 0-1.914 2.832 8.607 8.607 0 0 0-.703 3.457c0 1.224.235 2.377.703 3.457a9.137 9.137 0 0 0 1.914 2.813 9.073 9.073 0 0 0 2.833 1.914 8.637 8.637 0 0 0 3.476.703 8.595 8.595 0 0 0 3.457-.703 8.768 8.768 0 0 0 2.832-1.914 9.137 9.137 0 0 0 1.914-2.813 8.59 8.59 0 0 0 .703-3.457Zm34.1-.117c0 1.29-.17 2.533-.508 3.73a13.777 13.777 0 0 1-1.407 3.34 14.794 14.794 0 0 1-2.187 2.832 14.034 14.034 0 0 1-2.832 2.188 14.252 14.252 0 0 1-3.359 1.426 13.948 13.948 0 0 1-3.711.488h-8.438V53.992h8.438c1.289 0 2.526.17 3.711.508a13.685 13.685 0 0 1 6.191 3.613 14.03 14.03 0 0 1 2.187 2.832 13.356 13.356 0 0 1 1.407 3.34c.338 1.185.508 2.422.508 3.711Zm-5.606 0a8.068 8.068 0 0 0-.664-3.262 8.13 8.13 0 0 0-1.797-2.656 8.318 8.318 0 0 0-2.676-1.816 8.067 8.067 0 0 0-3.261-.664h-2.793v16.796h2.793a8.277 8.277 0 0 0 3.261-.644 8.478 8.478 0 0 0 2.676-1.797 8.352 8.352 0 0 0 1.797-2.676 8.206 8.206 0 0 0 .664-3.28ZM209.505 82h-5.586v-8.77a11.027 11.027 0 0 1-3.418-1.503 11.392 11.392 0 0 1-2.656-2.461 11.621 11.621 0 0 1-1.739-3.184 11.271 11.271 0 0 1-.605-3.691v-8.399h5.605v8.399c0 .768.143 1.497.43 2.187.299.677.703 1.27 1.211 1.778.508.507 1.1.91 1.777 1.21.69.287 1.419.43 2.188.43.768 0 1.491-.143 2.168-.43.69-.3 1.289-.703 1.797-1.21.507-.508.905-1.1 1.191-1.778.299-.69.449-1.42.449-2.187v-8.399h5.586v8.399c0 1.289-.208 2.52-.625 3.691a11.23 11.23 0 0 1-1.719 3.184c-.742.95-1.627 1.77-2.656 2.46a10.797 10.797 0 0 1-3.398 1.505V82Z"/></svg>
